!!!OTL: Wiedersehn (2-84) S. 247
!!!id: P0955
**kern
*clefG2
*k[f#]
*G:
{4d
=1
4.g
8a
4b-
=2
4a
4b-
4a
=3
4g
4f#
4g
=4
2d}
=5
{4d
=6
2g
4a
=7
2dd
4dd
=8
4cc
4b
[4a
=9
4a]}
4r
=10
{8b
8a
=11
4g
4g
8dd
8cc#
=12
4dd
4dd
8g
8g
=13
4.g
8f#
4g
=14
2d}
=15
{4d
=16
4g
4a
[4dd
=17
2dd]
8cc
8b
=18
4.a
8b
4a
=19
2g}
==
*-
!!!minrhy: 8
!!!meters: 3/4 ]  ZZ[4
!!!cut: Wiedersehn (2-84) S. 247
!!!reg: Lothringen
!!!trd: PINCK, Louis: Verklingende Weisen, Bd 2, Metz 1928
!!!rhy1: X_  X_.XX_  X_X_X_  X_X_X_  X__
!!!rhy2: X_  X__X_  X__X_  X_X_X_  ^_0_
!!!key: P0955  08  G 3/4 ]  ZZ[4
!!!mod: ACHTTONSKALA ]  AMBITUS[8
!!!kad: -52-51
!!!akz: 121-5_1542_151-5_1521_
!!!fot: 'a__b__c__d__
!!!for: 'a__b__c__d__
!!!fok: '^__^a_Sd_^a_
!! PHRAS[AUFTAKTIG]
!!!fkt: Liebe, Treue
!! LOTH VKL
!! PR[11] 2K[17] 2G[14] 3K[0] 3G[3] 4A[0] 4Ü[0] 5A[3] 6K[0] 6G[0]
!! 7K[0] 7G[0] 8A[0] MEHR[0] SI[37] ABS[35] SR[31] SP[6]
!! ST[8] 2k[20] 2g[31] 3k[0] 3g[0] 4d[0] 4ü[0] 5d[0] 6k[0] 6g[0]
!! 7k[0] 7g[0] 8d[0] mehr[0] si[51] dm[-14] sr[51] sp[0]
!! 1F[58] 2F[17] 3F[0] 4F[0] LF[0] 2P[8] 3P[0] 4P[0] TRI[0] DF[4] AB[36]
!! TF[0] U3K[0] U3[0] U4[0] U4Ü[0] U5[0] U6K[0] U6[0] U7K[0] U7[0]
!! N1[22] N2K[0] N2[33] N3K[22] N3[0] N4[8] N4Ü[0] N5[11] N6K[3] N6[0]
!!!n7k: 0] N7[0] O1[0] O2K[0] O2[0] O3K[0] O3[0] HÖ[0
